src/assets/logos/logo4.svg

<svg width="62" height="66" viewBox="0 0 62 66" fill="none" xmlns="http://www.w3.org/2000/svg">
<path fill-rule="evenodd" clip-rule="evenodd" d="M42.3502 64.6845C40.7206 62.9182 41.8534 57.8926 38.5709 58.0264C37.8433 58.557 38.1496 60.1113 37.7636 60.9677C35.5743 61.3654 35.1163 59.7285 33.713 59.1735C32.1004 59.7021 32.2345 62.0257 29.7962 61.7182C29.6954 60.3489 29.9436 58.5748 29.2262 57.8832C26.9447 57.735 26.5905 59.576 24.8474 59.9746C24.3845 58.8458 23.1604 58.5865 23.4024 56.6396C22.4023 56.2956 21.6197 55.686 20.2539 55.7721C18.9999 49.6052 10.4603 48.6239 12.6574 41.5183C12.4219 39.3931 9.06252 38.9146 10.6764 36.2581C8.16301 37.1943 11.6397 32.8748 9.636 31.4429C9.14472 30.2959 7.68794 32.4691 7.79269 30.0548C9.97001 30.3961 10.2788 28.845 10.821 27.5493C11.0928 25.8787 8.99582 26.9706 9.41689 25.1684C10.2203 24.4265 11.6958 24.375 12.0155 23.1365C12.3327 21.7526 11.332 21.9001 11.4735 20.753L12.144 20.4632L11.8975 19.758L12.3205 19.7432C13.736 19.1309 13.7906 16.8693 13.0613 15.3297C14.8749 15.3625 18.0594 14.7324 17.3463 10.842C19.6236 12.602 20.2008 8.55673 22.2244 10.1994C23.4426 9.42372 24.0385 8.00811 25.6898 7.65117C25.5857 8.42359 26.1322 8.48139 26.1834 9.0809C27.5319 7.488 31.7924 8.86856 32.788 6.91457L33.2145 7.14678L33.6787 7.37219C34.1218 7.35672 34.0496 7.96054 34.1552 8.31379C35.1753 10.31 39.5406 8.41128 40.4582 10.5044C40.8422 10.6008 40.8727 10.3197 40.9026 10.0194L41.5633 10.2434L41.7598 9.51717C42.3859 10.772 44.7482 10.058 45.816 10.8225C46.1844 12.2758 44.6322 11.7891 45.0088 13.2614L46.3307 13.2152L46.1549 14.1027L46.8301 14.6667C47.0645 17.698 52.5319 16.5351 53.9792 15.389C53.5599 16.2328 54.8346 20.1778 51.9014 20.2802C52.6096 25.184 57.8676 27.4083 57.2109 32.2087C56.9328 33.7011 58.4673 33.1038 58.1893 34.5989C58.3924 36.6621 56.1578 36.2679 56.0892 38.0577C57.1867 38.3022 59.1401 38.2944 60.1603 39.8595L59.5058 40.1047L59.7452 40.824C58.2936 41.5556 56.8165 42.2085 55.3799 42.9395C55.1443 45.0729 56.736 45.0311 56.8411 46.7407C54.9995 47.2773 54.4106 48.0282 55.1943 50.1864C54.5568 51.1312 52.2713 50.3626 51.6676 51.2677L51.6854 51.7778L51.0404 52.3632L51.2833 53.2553C49.4812 53.2633 49.4441 55.0905 49.6529 57.1699C46.6633 55.6571 44.5658 57.4574 43.0604 59.8273C42.9894 61.7655 43.9573 62.484 43.6846 64.6379L43.0065 64.4199L42.3502 64.6845Z" fill="#FF0078"/>
<path fill-rule="evenodd" clip-rule="evenodd" d="M13.2295 60.9839C11.9986 60.9907 12.0281 58.3169 13.5706 58.7072C13.735 59.7603 13.5602 60.4378 13.2295 60.9839" fill="#FF0078"/>
<path fill-rule="evenodd" clip-rule="evenodd" d="M61.7749 53.3917C61.3748 52.9099 60.2434 53.3032 60.4821 52.076C61.3864 51.954 61.8136 52.3988 61.7749 53.3917" fill="#FF0078"/>
<path fill-rule="evenodd" clip-rule="evenodd" d="M35.3502 58.6845C33.7206 56.9182 34.8534 51.8926 31.5709 52.0264C30.8433 52.557 31.1496 54.1113 30.7636 54.9677C28.5743 55.3654 28.1163 53.7285 26.713 53.1735C25.1004 53.7021 25.2345 56.0257 22.7962 55.7182C22.6954 54.3489 22.9436 52.5748 22.2262 51.8832C19.9447 51.735 19.5905 53.576 17.8474 53.9746C17.3845 52.8458 16.1604 52.5865 16.4024 50.6396C15.4023 50.2956 14.6197 49.686 13.2539 49.7721C11.9999 43.6052 3.46033 42.6239 5.65742 35.5183C5.42187 33.3931 2.06252 32.9146 3.67637 30.2581C1.16301 31.1943 4.63966 26.8748 2.636 25.4429C2.14472 24.2959 0.687935 26.4691 0.792688 24.0548C2.97001 24.3961 3.27885 22.845 3.82096 21.5493C4.09285 19.8787 1.99582 20.9706 2.41689 19.1684C3.22034 18.4265 4.69576 18.375 5.01551 17.1365C5.33271 15.7526 4.33204 15.9001 4.47348 14.753L5.14399 14.4632L4.89753 13.758L5.32052 13.7432C6.73601 13.1309 6.79064 10.8693 6.06129 9.32975C7.87492 9.36251 11.0594 8.73238 10.3463 4.84196C12.6236 6.60203 13.2008 2.55673 15.2244 4.19936C16.4426 3.42372 17.0385 2.00811 18.6898 1.65117C18.5857 2.42359 19.1322 2.48139 19.1834 3.0809C20.5319 1.488 24.7924 2.86856 25.788 0.914571L26.2145 1.14678L26.6787 1.37219C27.1218 1.35672 27.0496 1.96054 27.1552 2.31379C28.1753 4.30996 32.5406 2.41128 33.4582 4.50438C33.8422 4.6008 33.8727 4.31968 33.9026 4.01936L34.5633 4.24339L34.7598 3.51717C35.3859 4.77204 37.7482 4.05804 38.816 4.82249C39.1844 6.27581 37.6322 5.78911 38.0088 7.26137L39.3307 7.21521L39.1549 8.10271L39.8301 8.6667C40.0645 11.698 45.5319 10.5351 46.9792 9.38901C46.5599 10.2328 47.8346 14.1778 44.9014 14.2802C45.6096 19.184 50.8676 21.4083 50.2109 26.2087C49.9328 27.7011 51.4673 27.1038 51.1893 28.5989C51.3924 30.6621 49.1578 30.2679 49.0892 32.0577C50.1867 32.3022 52.1401 32.2944 53.1603 33.8595L52.5058 34.1047L52.7452 34.824C51.2936 35.5556 49.8165 36.2085 48.3799 36.9395C48.1443 39.0729 49.736 39.0311 49.8411 40.7407C47.9995 41.2773 47.4106 42.0282 48.1943 44.1864C47.5568 45.1312 45.2713 44.3626 44.6676 45.2677L44.6854 45.7778L44.0404 46.3632L44.2833 47.2553C42.4812 47.2633 42.4441 49.0905 42.6529 51.1699C39.6633 49.6571 37.5658 51.4574 36.0604 53.8273C35.9894 55.7655 36.9573 56.484 36.6846 58.6379L36.0065 58.4199L35.3502 58.6845Z" fill="#00FFF0"/>
<path fill-rule="evenodd" clip-rule="evenodd" d="M6.22953 54.9839C4.99863 54.9907 5.02814 52.3169 6.57065 52.7072C6.73502 53.7603 6.56019 54.4378 6.22953 54.9839" fill="#00FFF0"/>
<path fill-rule="evenodd" clip-rule="evenodd" d="M54.7749 47.3917C54.3748 46.9099 53.2434 47.3032 53.4821 46.076C54.3864 45.954 54.8136 46.3988 54.7749 47.3917" fill="#00FFF0"/>
<path fill-rule="evenodd" clip-rule="evenodd" d="M38.329 62.3677C36.6994 60.6015 37.8322 55.5758 34.5497 55.7096C33.822 56.2402 34.1284 57.7946 33.7424 58.651C31.553 59.0487 31.0951 57.4118 29.6917 56.8567C28.0792 57.3853 28.2133 59.7089 25.775 59.4015C25.6742 58.0321 25.9223 56.258 25.205 55.5664C22.9235 55.4182 22.5693 57.2592 20.8262 57.6578C20.3633 56.529 19.1392 56.2697 19.3812 54.3228C18.3811 53.9789 17.5985 53.3692 16.2327 53.4553C14.9787 47.2884 6.43912 46.3072 8.63621 39.2015C8.40066 37.0764 5.04131 36.5979 6.65516 33.9414C4.1418 34.8775 7.61845 30.558 5.61479 29.1261C5.12351 27.9791 3.66673 30.1524 3.77148 27.738C5.9488 28.0793 6.25764 26.5282 6.79975 25.2326C7.07164 23.5619 4.97461 24.6538 5.39568 22.8517C6.19913 22.1097 7.67455 22.0582 7.9943 20.8197C8.3115 19.4358 7.31083 19.5833 7.45227 18.4362L8.12278 18.1465L7.87632 17.4412L8.29931 17.4264C9.7148 16.8141 9.76943 14.5525 9.04008 13.013C10.8537 13.0457 14.0382 12.4156 13.3251 8.52519C15.6024 10.2853 16.1796 6.23995 18.2032 7.88258C19.4214 7.10695 20.0173 5.69134 21.6686 5.3344C21.5645 6.10682 22.111 6.16462 22.1622 6.76413C23.5107 5.17123 27.7712 6.55179 28.7668 4.5978L29.1933 4.83001L29.6575 5.05542C30.1006 5.03995 30.0284 5.64377 30.134 5.99702C31.1541 7.99319 35.5194 6.09451 36.437 8.18761C36.821 8.28403 36.8515 8.0029 36.8814 7.70258L37.5421 7.92662L37.7386 7.20039C38.3647 8.45526 40.727 7.74127 41.7948 8.50571C42.1632 9.95904 40.611 9.47234 40.9876 10.9446L42.3094 10.8984L42.1337 11.7859L42.8088 12.3499C43.0433 15.3812 48.5107 14.2183 49.958 13.0722C49.5387 13.9161 50.8134 17.861 47.8802 17.9634C48.5884 22.8672 53.8464 25.0915 53.1897 29.8919C52.9116 31.3843 54.4461 30.7871 54.1681 32.2822C54.3712 34.3453 52.1366 33.9511 52.068 35.7409C53.1655 35.9854 55.1189 35.9776 56.139 37.5427L55.4846 37.7879L55.724 38.5072C54.2723 39.2388 52.7952 39.8917 51.3587 40.6228C51.1231 42.7561 52.7148 42.7143 52.8199 44.4239C50.9783 44.9605 50.3894 45.7114 51.1731 47.8696C50.5356 48.8144 48.2501 48.0458 47.6464 48.951L47.6642 49.461L47.0192 50.0464L47.2621 50.9385C45.4599 50.9465 45.4229 52.7737 45.6317 54.8531C42.642 53.3403 40.5445 55.1406 39.0392 57.5105C38.9682 59.4487 39.9361 60.1672 39.6634 62.3211L38.9853 62.1031L38.329 62.3677Z" fill="#5900FF"/>
<path fill-rule="evenodd" clip-rule="evenodd" d="M9.20832 58.6671C7.97742 58.6739 8.00693 56.0001 9.54944 56.3904C9.71381 57.4435 9.53898 58.121 9.20832 58.6671" fill="#5900FF"/>
<path fill-rule="evenodd" clip-rule="evenodd" d="M57.7537 51.075C57.3536 50.5931 56.2222 50.9864 56.4609 49.7592C57.3652 49.6372 57.7924 50.082 57.7537 51.075" fill="#5900FF"/>
<path d="M22 26.968C22 27.448 22.0907 27.8907 22.272 28.296C22.4533 28.7013 22.6987 29.0533 23.008 29.352C23.3173 29.6507 23.6747 29.8853 24.08 30.056C24.496 30.216 24.9333 30.296 25.392 30.296C25.8507 30.296 26.2827 30.216 26.688 30.056C27.104 29.8853 27.4667 29.6507 27.776 29.352C28.096 29.0533 28.3467 28.7013 28.528 28.296C28.7093 27.8907 28.8 27.448 28.8 26.968C28.8 26.488 28.7093 26.0453 28.528 25.64C28.3467 25.2347 28.096 24.8827 27.776 24.584C27.4667 24.2853 27.104 24.056 26.688 23.896C26.2827 23.7253 25.8507 23.64 25.392 23.64C24.9333 23.64 24.496 23.7253 24.08 23.896C23.6747 24.056 23.3173 24.2853 23.008 24.584C22.6987 24.8827 22.4533 25.2347 22.272 25.64C22.0907 26.0453 22 26.488 22 26.968ZM18.72 26.968C18.72 26.072 18.8853 25.24 19.216 24.472C19.5467 23.6933 20.0053 23.016 20.592 22.44C21.1787 21.864 21.8773 21.416 22.688 21.096C23.5093 20.7653 24.4107 20.6 25.392 20.6C26.3627 20.6 27.2587 20.7653 28.08 21.096C28.9013 21.416 29.6053 21.864 30.192 22.44C30.7893 23.016 31.2533 23.6933 31.584 24.472C31.9147 25.24 32.08 26.072 32.08 26.968C32.08 27.864 31.9147 28.7013 31.584 29.48C31.2533 30.248 30.7893 30.92 30.192 31.496C29.6053 32.072 28.9013 32.5253 28.08 32.856C27.2587 33.176 26.3627 33.336 25.392 33.336C24.4107 33.336 23.5093 33.176 22.688 32.856C21.8773 32.5253 21.1787 32.072 20.592 31.496C20.0053 30.92 19.5467 30.248 19.216 29.48C18.8853 28.7013 18.72 27.864 18.72 26.968Z" fill="#EAEBF4"/>
<path d="M35.136 36.248H41.36C41.36 36.888 41.3333 37.4693 41.28 37.992C41.2267 38.5147 41.12 39 40.96 39.448C40.736 40.0773 40.432 40.6373 40.048 41.128C39.664 41.608 39.2107 42.0133 38.688 42.344C38.176 42.664 37.6107 42.9093 36.992 43.08C36.3733 43.2507 35.7227 43.336 35.04 43.336C34.1013 43.336 33.2427 43.1813 32.464 42.872C31.696 42.5627 31.0347 42.1307 30.48 41.576C29.9253 41.0107 29.4933 40.3387 29.184 39.56C28.8747 38.7707 28.72 37.9013 28.72 36.952C28.72 36.0133 28.8693 35.1547 29.168 34.376C29.4773 33.5867 29.9093 32.9147 30.464 32.36C31.0293 31.8053 31.7067 31.3733 32.496 31.064C33.2853 30.7547 34.1653 30.6 35.136 30.6C36.3947 30.6 37.4987 30.872 38.448 31.416C39.3973 31.96 40.1493 32.8027 40.704 33.944L37.728 35.176C37.4507 34.5147 37.088 34.04 36.64 33.752C36.2027 33.464 35.7013 33.32 35.136 33.32C34.6667 33.32 34.24 33.4107 33.856 33.592C33.472 33.7627 33.1413 34.0133 32.864 34.344C32.5973 34.664 32.384 35.0533 32.224 35.512C32.0747 35.9707 32 36.4827 32 37.048C32 37.56 32.064 38.0347 32.192 38.472C32.3307 38.9093 32.5333 39.288 32.8 39.608C33.0667 39.928 33.3973 40.1787 33.792 40.36C34.1867 40.5307 34.6453 40.616 35.168 40.616C35.4773 40.616 35.776 40.584 36.064 40.52C36.352 40.4453 36.608 40.3333 36.832 40.184C37.0667 40.024 37.2587 39.8213 37.408 39.576C37.5573 39.3307 37.6587 39.032 37.712 38.68H35.136V36.248Z" fill="#EAEBF4"/>
</svg>

<svg width="62" height="66" fill="none" xmlns="http://www.w3.org/2000/svg">
  <path fill-rule="evenodd" clip-rule="evenodd" d="M42.3502 64.6845c-1.6296-1.7663-.4968-6.7919-3.7793-6.6581-.7276.5306-.4213 2.0849-.8073 2.9413-2.1893.3977-2.6473-1.2392-4.0506-1.7942-1.6126.5286-1.4785 2.8522-3.9168 2.5447-.1008-1.3693.1474-3.1434-.57-3.835-2.2815-.1482-2.6357 1.6928-4.3788 2.0914-.4629-1.1288-1.687-1.3881-1.445-3.335-1.0001-.344-1.7827-.9536-3.1485-.8675-1.254-6.1669-9.7936-7.1482-7.5965-14.2538-.2355-2.1252-3.5949-2.6037-1.981-5.2602-2.5134.9362.9633-3.3833-1.0404-4.8152-.4913-1.147-1.948 1.0262-1.8433-1.3881 2.1773.3413 2.4861-1.2098 3.0283-2.5055.2718-1.6706-1.8252-.5787-1.4041-2.3809.8034-.7419 2.2789-.7934 2.5986-2.0319.3172-1.3839-.6835-1.2364-.542-2.3835l.6705-.2898-.2465-.7052.423-.0148c1.4155-.6123 1.4701-2.8739.7408-4.4135 1.8136.0328 4.9981-.5973 4.285-4.4877 2.2773 1.76 2.8545-2.2853 4.8781-.6426 1.2182-.7757 1.8141-2.1913 3.4654-2.5482-.1041.7724.4424.8302.4936 1.4297 1.3485-1.5929 5.609-.2123 6.6046-2.1663l.4265.2322.4642.2254c.4431-.0155.3709.5883.4765.9416 1.0201 1.9962 5.3854.0975 6.303 2.1906.384.0964.4145-.1847.4444-.485l.6607.224.1965-.7262c.6261 1.2548 2.9884.5408 4.0562 1.3053.3684 1.4533-1.1838.9666-.8072 2.4389l1.3219-.0462-.1758.8875.6752.564c.2344 3.0313 5.7018 1.8684 7.1491.7223-.4193.8438.8554 4.7888-2.0778 4.8912.7082 4.9038 5.9662 7.1281 5.3095 11.9285-.2781 1.4924 1.2564.8951.9784 2.3902.2031 2.0632-2.0315 1.669-2.1001 3.4588 1.0975.2445 3.0509.2367 4.0711 1.8018l-.6545.2452.2394.7193c-1.4516.7316-2.9287 1.3845-4.3653 2.1155-.2356 2.1334 1.3561 2.0916 1.4612 3.8012-1.8416.5366-2.4305 1.2875-1.6468 3.4457-.6375.9448-2.923.1762-3.5267 1.0813l.0178.5101-.645.5854.2429.8921c-1.8021.008-1.8392 1.8352-1.6304 3.9146-2.9896-1.5128-5.0871.2875-6.5925 2.6574-.071 1.9382.8969 2.6567.6242 4.8106l-.6781-.218-.6563.2646zM13.2295 60.9839c-1.2309.0068-1.2014-2.667.3411-2.2767.1644 1.0531-.0104 1.7306-.3411 2.2767M61.7749 53.3917c-.4001-.4818-1.5315-.0885-1.2928-1.3157.9043-.122 1.3315.3228 1.2928 1.3157" fill="#FF0078"/>
  <path fill-rule="evenodd" clip-rule="evenodd" d="M35.3502 58.6845c-1.6296-1.7663-.4968-6.7919-3.7793-6.6581-.7276.5306-.4213 2.0849-.8073 2.9413-2.1893.3977-2.6473-1.2392-4.0506-1.7942-1.6126.5286-1.4785 2.8522-3.9168 2.5447-.1008-1.3693.1474-3.1434-.57-3.835-2.2815-.1482-2.6357 1.6928-4.3788 2.0914-.4629-1.1288-1.687-1.3881-1.445-3.335-1.0001-.344-1.7827-.9536-3.1485-.8675-1.254-6.1669-9.7936-7.1482-7.5965-14.2538-.2355-2.1252-3.5949-2.6037-1.981-5.2602-2.5134.9362.9633-3.3833-1.0404-4.8152-.4913-1.147-1.948 1.0262-1.8433-1.3881 2.1773.3413 2.4861-1.2098 3.0283-2.5055.2719-1.6706-1.8252-.5787-1.4041-2.3809.8034-.7419 2.2789-.7934 2.5986-2.0319.3172-1.3839-.6835-1.2364-.542-2.3835l.6705-.2898-.2465-.7052.423-.0148c1.4155-.6123 1.4701-2.8739.7408-4.4134 1.8136.0327 4.9981-.5974 4.285-4.4878 2.2773 1.76 2.8545-2.2853 4.8781-.6426 1.2182-.7757 1.8141-2.1913 3.4654-2.5482-.1041.7724.4424.8302.4936 1.4297 1.3485-1.5929 5.609-.2123 6.6046-2.1663l.4265.2322.4642.2254c.4431-.0155.3709.5883.4765.9416 1.0201 1.9962 5.3854.0975 6.303 2.1906.384.0964.4145-.1847.4444-.485l.6607.224.1965-.7262c.6261 1.2548 2.9884.5408 4.0562 1.3053.3684 1.4533-1.1838.9666-.8072 2.4389l1.3219-.0462-.1758.8875.6752.564c.2344 3.0313 5.7018 1.8684 7.1491.7223-.4193.8438.8554 4.7888-2.0778 4.8912.7082 4.9038 5.9662 7.1281 5.3095 11.9285-.2781 1.4924 1.2564.8951.9784 2.3902.2031 2.0632-2.0315 1.669-2.1001 3.4588 1.0975.2445 3.0509.2367 4.0711 1.8018l-.6545.2452.2394.7193c-1.4516.7316-2.9287 1.3845-4.3653 2.1155-.2356 2.1334 1.3561 2.0916 1.4612 3.8012-1.8416.5366-2.4305 1.2875-1.6468 3.4457-.6375.9448-2.923.1762-3.5267 1.0813l.0178.5101-.645.5854.2429.8921c-1.8021.008-1.8392 1.8352-1.6304 3.9146-2.9896-1.5128-5.0871.2875-6.5925 2.6574-.071 1.9382.8969 2.6567.6242 4.8106l-.6781-.218-.6563.2646zM6.2295 54.9839c-1.2309.0068-1.2014-2.667.3411-2.2767.1644 1.0531-.0104 1.7306-.341 2.2767M54.7749 47.3917c-.4001-.4818-1.5315-.0885-1.2928-1.3157.9043-.122 1.3315.3228 1.2928 1.3157" fill="#00FFF0"/>
  <path fill-rule="evenodd" clip-rule="evenodd" d="M38.329 62.3677c-1.6296-1.7662-.4968-6.7919-3.7793-6.6581-.7277.5306-.4213 2.085-.8073 2.9414-2.1894.3977-2.6473-1.2392-4.0507-1.7943-1.6125.5286-1.4784 2.8522-3.9167 2.5448-.1008-1.3694.1473-3.1435-.57-3.8351-2.2815-.1482-2.6357 1.6928-4.3788 2.0914-.4629-1.1288-1.687-1.3881-1.445-3.335-1.0001-.3439-1.7827-.9536-3.1485-.8675-1.254-6.1669-9.7936-7.1481-7.5965-14.2538-.2355-2.1251-3.5949-2.6036-1.981-5.2601-2.5134.9361.9633-3.3834-1.0404-4.8153-.4913-1.147-1.948 1.0263-1.8433-1.3881 2.1773.3413 2.4861-1.2098 3.0283-2.5054.2718-1.6707-1.8252-.5788-1.4041-2.3809.8034-.742 2.2789-.7935 2.5986-2.032.3172-1.3839-.6835-1.2364-.542-2.3835l.6705-.2897-.2465-.7053.423-.0148c1.4155-.6123 1.4701-2.8739.7408-4.4134 1.8136.0327 4.9981-.5974 4.285-4.4878 2.2773 1.7601 2.8545-2.2852 4.8781-.6426 1.2182-.7756 1.8141-2.1913 3.4654-2.5482-.1041.7724.4424.8302.4936 1.4297 1.3485-1.5929 5.609-.2123 6.6046-2.1663l.4265.2322.4642.2254c.4431-.0154.3709.5884.4765.9416 1.0201 1.9962 5.3854.0975 6.303 2.1906.384.0964.4145-.1847.4444-.485l.6607.224.1965-.7262c.6261 1.2549 2.9884.5409 4.0562 1.3053.3684 1.4533-1.1838.9666-.8072 2.4389l1.3218-.0462-.1757.8875.6751.564c.2345 3.0313 5.7019 1.8684 7.1492.7223-.4193.8439.8554 4.7888-2.0778 4.8912.7082 4.9038 5.9662 7.1281 5.3095 11.9285-.2781 1.4924 1.2564.8952.9784 2.3903.2031 2.0631-2.0315 1.6689-2.1001 3.4587 1.0975.2445 3.0509.2367 4.071 1.8018l-.6544.2452.2394.7193c-1.4517.7316-2.9288 1.3845-4.3653 2.1156-.2356 2.1333 1.3561 2.0915 1.4612 3.8011-1.8416.5366-2.4305 1.2875-1.6468 3.4457-.6375.9448-2.923.1762-3.5267 1.0814l.0178.51-.645.5854.2429.8921c-1.8022.008-1.8392 1.8352-1.6304 3.9146-2.9897-1.5128-5.0872.2875-6.5925 2.6574-.071 1.9382.8969 2.6567.6242 4.8106l-.6781-.218-.6563.2646zM9.2083 58.6671c-1.2309.0068-1.2014-2.667.3411-2.2767.1644 1.0531-.0104 1.7306-.341 2.2767M57.7537 51.075c-.4001-.4819-1.5315-.0886-1.2928-1.3158.9043-.122 1.3315.3228 1.2928 1.3158" fill="#5900FF"/>
  <path d="M22 26.968c0 .48.0907.9227.272 1.328.1813.4053.4267.7573.736 1.056.3093.2987.6667.5333 1.072.704.416.16.8533.24 1.312.24.4587 0 .8907-.08 1.296-.24.416-.1707.7787-.4053 1.088-.704.32-.2987.5707-.6507.752-1.056.1813-.4053.272-.848.272-1.328 0-.48-.0907-.9227-.272-1.328-.1813-.4053-.432-.7573-.752-1.056-.3093-.2987-.672-.528-1.088-.688-.4053-.1707-.8373-.256-1.296-.256s-.896.0853-1.312.256c-.4053.16-.7627.3893-1.072.688-.3093.2987-.5547.6507-.736 1.056-.1813.4053-.272.848-.272 1.328zm-3.28 0c0-.896.1653-1.728.496-2.496.3307-.7787.7893-1.456 1.376-2.032.5867-.576 1.2853-1.024 2.096-1.344.8213-.3307 1.7227-.496 2.704-.496.9707 0 1.8667.1653 2.688.496.8213.32 1.5253.768 2.112 1.344.5973.576 1.0613 1.2533 1.392 2.032.3307.768.496 1.6.496 2.496 0 .896-.1653 1.7333-.496 2.512-.3307.768-.7947 1.44-1.392 2.016-.5867.576-1.2907 1.0293-2.112 1.36-.8213.32-1.7173.48-2.688.48-.9813 0-1.8827-.16-2.704-.48-.8107-.3307-1.5093-.784-2.096-1.36-.5867-.576-1.0453-1.248-1.376-2.016-.3307-.7787-.496-1.616-.496-2.512zM35.136 36.248h6.224c0 .64-.0267 1.2213-.08 1.744-.0533.5227-.16 1.008-.32 1.456-.224.6293-.528 1.1893-.912 1.68-.384.48-.8373.8853-1.36 1.216-.512.32-1.0773.5653-1.696.736-.6187.1707-1.2693.256-1.952.256-.9387 0-1.7973-.1547-2.576-.464-.768-.3093-1.4293-.7413-1.984-1.296-.5547-.5653-.9867-1.2373-1.296-2.016-.3093-.7893-.464-1.6587-.464-2.608 0-.9387.1493-1.7973.448-2.576.3093-.7893.7413-1.4613 1.296-2.016.5653-.5547 1.2427-.9867 2.032-1.296.7893-.3093 1.6693-.464 2.64-.464 1.2587 0 2.3627.272 3.312.816.9493.544 1.7013 1.3867 2.256 2.528l-2.976 1.232c-.2773-.6613-.64-1.136-1.088-1.424-.4373-.288-.9387-.432-1.504-.432-.4693 0-.896.0907-1.28.272-.384.1707-.7147.4213-.992.752-.2667.32-.48.7093-.64 1.168-.1493.4587-.224.9707-.224 1.536 0 .512.064.9867.192 1.424.1387.4373.3413.816.608 1.136.2667.32.5973.5707.992.752.3947.1707.8533.256 1.376.256.3093 0 .608-.032.896-.096.288-.0747.544-.1867.768-.336.2347-.16.4267-.3627.576-.608.1493-.2453.2507-.544.304-.896h-2.576v-2.432z" fill="#EAEBF4"/>
</svg>
